!!!COM: Mozart, Wolfgang Amadeus
!!!CDT: 1756/01/27/-1791/12/05/
!!!CNT: German
!!!OTL: Piano Sonata No. 10 in C major
!!!SCT1: K<sup>1</sup> 330
!!!SCT2: K<sup>6</sup> 300h
!!!OMV: Mvmt. 1
!!!OMD: Allegro moderato
!!!ODT: 1782///
**kern	**kern	**dynam
*staff2	*staff1	*staff1/2
*>[A,A,B,B]	*>[A,A,B,B]	*>[A,A,B,B]
*>norep[A,B]	*>norep[A,B]	*>norep[A,B]
*>A	*>A	*>A
*clefG2	*clefG2	*clefG2
*k[]	*k[]	*k[]
*C:	*C:	*C:
*M2/4	*M2/4	*M2/4
*MM88	*MM88	*MM88
=1-	=1-	=1-
16e/LL	8gg'\L	.
16c/	.	.
16e/	(8.gg\J	.
16c/JJ	.	.
16e/LL	.	.
16c/	32ff\LLL	.
.	32ee\JJJ)	.
16f/	(32ee\LLL	.
.	32dd\	.
16c/JJ	32cc\	.
.	32b\JJJ)	.
=2	=2	=2
16e/LL	(8.cc\L	.
16c/	.	.
16e/	.	.
.	16bQ/LL	.
.	16ccQ/JJ	.
16c/JJ	32dd\LL	.
.	32ee\JJJ	.
16e/LL	8g/)	.
16c/	.	.
16e/	8r	.
16c/JJ	.	.
=3	=3	=3
16e/LL	16gg'\LL	.
16c/	16gg'\J	.
16e/	(8.gg\J	.
16c/JJ	.	.
16e/LL	.	.
16c/	32ff\LLL	.
.	32ee\JJJ)	.
16f/	(32ee\LLL	.
.	32dd\	.
16c/JJ	32cc\	.
.	32b\JJJ)	.
=4	=4	=4
16e/LL	(8.cc\L	.
16c/	.	.
16e/	.	.
.	16bQ/LL	.
.	16ccQ/JJ	.
16c/JJ	32dd\LL	.
.	32ee\JJJ	.
16e/LL	8g/)	.
16c/	.	.
16e/	8r	.
16c/JJ	.	.
=5	=5	=5
16f/LL	16a'\LL	.
16c/	16cc'\	.
16f/	16ff'\	.
16c/JJ	16aa'\JJ	.
16f/LL	8ccc'\	.
16c/	.	.
16f/	8r	.
16c/JJ	.	.
=6	=6	=6
16e/LL	16g'\LL	.
16c/	16cc'\	.
16e/	16ee'\	.
16c/JJ	16gg'\JJ	.
16e/LL	8ccc\	.
16c/	.	.
16e/	8r	.
16c/JJ	.	.
*clefF4	*	*
=7	=7	=7
*^	*	*
.	.	(16gQ/	.
8e/L	16c\LL	4.gg\)	.
.	16G\	.	.
8e/J	16c\	.	.
.	16G\JJ	.	.
8d/L	16B\LL	.	.
.	16G\	.	.
8d/J	16B\	(16ff\LL	.
.	16G\JJ	32ee\L	.
.	.	32ff\JJJ)	.
*v	*v	*	*
=8	=8	=8
16c\LL	(8dd#\L	.
16C\	.	.
16E\	8ee\J)	.
16G\JJ	.	.
16c\LL	4r	.
16e\	.	.
16g\	.	.
16e\JJ	.	.
=9	=9	=9
*	*^	*
2r	(16a/LL	16f\LL	.
.	32cc/L	16c\	.
.	32a/JJJ	.	.
.	32ff/LLL	16f\	.
.	32cc/	.	.
.	32aa/	16c\JJ	.
.	32ff/JJJ	.	.
.	8ccc/)	16f\LL	.
.	.	16c\	.
.	8r	16f\	.
.	.	16c\JJ	.
=10	=10	=10	=10
2r	(16g/LL	16e\LL	.
.	32cc/L	16c\	.
.	32g/JJJ	.	.
.	32ee/LLL	16e\	.
.	32cc/	.	.
.	32gg/	16c\JJ	.
.	32ee/JJJ	.	.
.	8ccc/)	16e\LL	.
.	.	16c\	.
.	8r	16e\	.
.	.	16c\JJ	.
*	*v	*v	*
=11	=11	=11
*^	*	*
8e/L	16c\LL	(16aa\LL	.
.	16G\	16gg\)	.
8e/J	16c\	16ff'\	.
.	16G\JJ	16ee'\JJ	.
4f/	16d\LL	(16ee\LL	.
.	16G\	16dd\)	.
.	16d\	16cc'\	.
.	16G\JJ	16b'\JJ	.
*v	*v	*	*
=12	=12	=12
4c\ 4e\	(32cc\LLL	.
.	32g\	.
.	32a\	.
.	32b\JJJ	.
.	32cc\LLL	.
.	32dd\	.
.	32ee\	.
.	32ff\JJJ	.
4r	32gg\LLL	.
.	32aa\	.
.	32bb\	.
.	32ccc\JJJ	.
.	16gg\LL)	.
.	16gg'\JJ	.
=13	=13	=13
8G'\ 8e'\L	32r	.
.	(32gg\LLL	.
.	32aa\	.
.	32gg\JJJ)	.
8G'\ 8d'\	32r	.
.	(32ff\LLL	.
.	32gg\	.
.	32ff\JJJ)	.
8G'\ 8c'\	32r	.
.	(32ee\LLL	.
.	32ff\	.
.	32ee\JJJ)	.
8G'\ 8B'\J	32r	.
.	(32dd\LLL	.
.	32ee\	.
.	32dd\JJJ)	.
=14	=14	=14
4c\	(32cc\LLL	.
.	32g\	.
.	32a\	.
.	32b\JJJ	.
.	32cc\LLL	.
.	32dd\	.
.	32ee\	.
.	32ff\JJJ	.
4r	32gg\LLL	.
.	32aa\	.
.	32bb\	.
.	32ccc\JJJ	.
.	16gg\LL)	.
.	16gg'\JJ	.
=15	=15	=15
8G'\ 8e'\L	32r	.
.	(32gg\LLL	.
.	32aa\	.
.	32gg\JJJ)	.
8G'\ 8d'\	32r	.
.	(32ff\LLL	.
.	32gg\	.
.	32ff\JJJ)	.
8G'\ 8c'\	32r	.
.	(32ee\LLL	.
.	32ff\	.
.	32ee\JJJ)	.
8G'\ 8B'\J	32r	.
.	(32dd\LLL	.
.	32ee\	.
.	32dd\JJJ)	.
=16	=16	=16
16C'\LL	(8.cc\L	.
(16c\	.	.
16B\	.	.
16B-\JJ	32dd\LL	.
.	32ee\JJJ	.
16A\LL)	16ff\LK)	.
(16A\	(8ff\	.
16G\	.	.
16F\JJ	32gg\LL	.
.	32aa\JJJ	.
=17	=17	=17
8E'\L)	16gg\LL	.
.	16ee\	.
8C'\J	16ccc\)	.
.	16ccc'\JJ	.
8r	(32ddd\LLL	.
.	32ccc\	.
.	32bb\	.
.	32aa\JJJ)	.
8C\ 8c\	(32aa\LLL	.
.	32gg\	.
.	32ff\	.
.	32ee\JJJ)	.
=18	=18	=18
*^	*	*
(8.e/L	4G\	(8.gg\L	.
16c/Jk	.	16ee\Jk	.
8B/)	16r	8dd\)	.
.	(16GG\LL	.	.
8r	16BB\	8r	.
.	16D\JJ	.	.
*v	*v	*	*
=19	=19	=19
16G\LL	(32cc#\LLK	.
.	16.dd\	.
16B\	.	.
16d\JJ)	32ccn\L	.
.	32b\	.
16r	32a\	.
.	32g\JJJ)	.
(16G\LL	(16cc#\LL	.
16B\	16dd\JJ	.
16d\JJ)	32ccn\LLL	.
.	32b\	.
16r	32a\	.
.	32g\JJJ)	.
=20	=20	=20
(16G\LL	(16dd#\LL	.
16c\	16ee\)	.
16e\	16ee'\	.
16c\JJ	16ee'\JJ	.
16G\LL	8ee\	.
16c\	.	.
16e\	8r	.
16c\JJ	.	.
=21	=21	=21
.	(32aQ/	.
16F#\LL	(8.aa\L)	.
16A\	.	.
16c\JJ)	.	.
16r	48gg\LL	.
.	48ff#\	.
.	48ee\JJJ	.
(16F#\LL	16dd\LL)	.
16A\	16ddd'\	.
16c\JJ)	16ddd'\	.
16r	16ddd\JJ	.
=22	=22	=22
(16G\LL	([8ddd\L	.
16B\)	.	.
16d'\	32ddd\LL]	.
.	32bb\	.
16d'\JJ	32ddd\	.
.	32bb\JJJ	.
(16G\LL	8gg\)	.
16B\)	.	.
16d'\	8r	.
16d\JJ	.	.
=23	=23	=23
(16G\LL	(16cc#\LL	.
16B\	16dd\JJ	.
16d\JJ)	32ccn\LLL	.
.	32b\	.
16r	32a\	.
.	32g\JJJ)	.
(16G\LL	(32cc#\LLL	.
.	32dd\	.
16B\	32ee\	.
.	32dd\JJJ	.
16d\JJ)	32ccn\LLL	.
.	32b\	.
16r	32a\	.
.	32g\JJJ)	.
=24	=24	=24
(16G\LL	(16dd#\LL	.
16c\	16ee\)	.
16e\	16ee'\	.
16c\JJ	16ee'\JJ	.
16G\LL	8ee\	.
16c\	.	.
16e\	8r	.
16c\JJ)	.	.
=25	=25	=25
2F#\ 2A\ 2c\ 2d\	(32aa\LLL	.
.	32bb\	.
.	32ccc\	.
.	32bb\JJJ	.
.	32aa\LLL	.
.	32gg\	.
.	32ff#\	.
.	32ee\JJJ	.
.	32dd\LLL	.
.	32ff#\	.
.	32aa\	.
.	32gg\JJJ	.
.	32ff#\LLL	.
.	32ee\	.
.	32dd\	.
.	32cc\JJJ	.
*clefG2	*	*
=26	=26	=26
24G/LL	8b'\L)	.
24B/	.	.
24g/JJ	.	.
24A/LL	(16cc\L	.
24c/	.	.
.	32b\L	.
24g/JJ	.	.
.	32cc\JJJ	.
24B/LL	8dd\)	.
24d/	.	.
24g/JJ	.	.
24G/LL	8r	.
24B/	.	.
24g/JJ	.	.
=27	=27	=27
.	(16eeQ/LL	.
.	16ff#Q/JJ	.
24c/LL	8gg\L)	.
24e/	.	.
24g/JJ	.	.
24c/LL	16.gg\L	.
24e/	.	.
24g/JJ	.	.
.	32gg\JJk	.
24c/LL	8gg\	.
24e/	.	.
24g/JJ	.	.
24c/LL	(32ff#\LLL	.
.	32ee\	.
24e/	.	.
.	32dd\	.
24g/JJ	.	.
.	32cc\JJJ	.
=28	=28	=28
24G/LL	8b\L)	.
24B/	.	.
24g/JJ	.	.
24A/LL	(16cc\L	.
24c/	.	.
.	32b\L	.
24g/JJ	.	.
.	32cc\JJJ	.
24B/LL	8dd\)	.
24d/	.	.
24g/JJ	.	.
24G/LL	8r	.
24B/	.	.
24g/JJ	.	.
=29	=29	=29
.	(16eeQ/LL	.
.	16ff#Q/JJ)	.
24c/LL	8gg\L	.
24e/	.	.
24g/JJ	.	.
24c/LL	16.gg\L	.
24e/	.	.
24g/JJ	.	.
.	32gg\JJk	.
24c/LL	8gg\	.
24e/	.	.
24g/JJ	.	.
24c/LL	(32ff#\LLL	.
.	32ee\	.
24e/	.	.
.	32dd\	.
24g/JJ	.	.
.	32cc\JJJ	.
*clefF4	*	*
=30	=30	=30
8G\	16b\LL	.
.	(32gg\L)	.
.	32aa\JJJ	.
8r	32bb\LLL	.
.	32aa\	.
.	32gg\	.
.	32ff#\JJJ	.
8C/	32ee\LLL	.
.	32dd\	.
.	32cc\	.
.	32b\JJJ	.
8r	32a/LLL	.
.	32g/	.
.	32f#/	.
.	32e/JJJ	.
=31	=31	=31
8D\	8d/)	.
(4D#\ 4F#\ (4A\	(4c/	.
8E\) 8G\)	8B/)	.
=32	=32	=32
8C\ 8E\	16r	.
.	16A'/LL	.
8r	16c'/	.
.	16e'/JJ	.
4r	(16g#\LL	.
.	16a\	.
.	16cc\	.
.	16ee\JJ)	.
=33	=33	=33
*	*^	*
8r	16ee\LL	4.r	.
.	16gn\JJ	.	.
8Dn\ (8B\	(4g/	.	.
4D\ 4c\)	.	.	.
.	16b/LL	8f#\	.
.	16a/JJ)	.	.
=34	=34	=34	=34
8G\ 8B\L	8g/	8g\	.
8GG\J	8r	8r	.
4r	4r	(16dd\LL	.
.	.	16b\	.
.	.	16gg\)	.
.	.	16ff#'\JJ	.
*	*v	*v	*
=35	=35	=35
2r	16ee'\LL	.
.	16dd'\	.
.	16cc'\	.
.	16b'\JJ	.
.	8a'/L	.
.	8b'/J	.
=36	=36	=36
*^	*	*
8r	8r	(16dd\LL	.
.	.	16cc#\	.
4d/	(8F#\L	16ccn\JJ)	.
.	.	16r	.
.	8G\J)	(16b\LL	.
.	.	16cc\	.
8r	8r	16dd\)	.
.	.	16dd#'\JJ	.
=37	=37	=37	=37
4G/	4C\	(16.ee\LL	.
.	.	32ff#\k	.
.	.	16gg'\)	.
.	.	16ff#'\JJ	.
4E/	8r	16ee'\LL	.
.	.	16ddn'\	.
.	8C#\	16cc'\	.
.	.	16b'\JJ	.
=38	=38	=38	=38
(8G/L	4D\	(16.dd\LL	.
.	.	32b\Jk	.
8F#/J)	.	8a'\J	.
*clefG2	*clefG2	*	*
16.d/LL	4r	(16.dd\LL)	.
(64e/LL	.	64ee\LL	.
64f#/JJJJ	.	64ff#\JJJJ	.
16g/LL)	.	16gg\LL)	.
16f#'/JJ	.	16ff#'\JJ	.
*v	*v	*	*
=39	=39	=39
16e'/LL	16ee'\LL	.
16d'/	16dd'\	.
16c'/	16cc'\	.
16B'/JJ	16b'\JJ	.
8A'/L	8a'/L	.
8B'/J	8b'/J	.
=40	=40	=40
8c'/L	8cc'\L	.
8c#'/	8cc#'\	.
8d'/	8dd'\	.
8d#'/J	8dd#'\J	.
=41	=41	=41
*^	*^	*
8e/	8r	(16.ee/LL	4r	.
.	.	32e/k)	.	.
*clefF4	*clefF4	*	*	*
(8A/	8C\	(16.ccn/	.	.
.	.	32a/JJk)	.	.
8B/L	4D\	(8g/L	8g\L	.
8c/J)	.	16b/L	8f#\J	.
.	.	16a/JJ	.	.
*v	*v	*	*	*
*	*v	*v	*
=42	=42	=42
(16G\LL	8g/)	.
16B\	.	.
16d\	32r	.
.	(32gg\LLL	.
16B\JJ	32aa\	.
.	32gg\JJJ	.
16G\LL	32ee\LLL	.
.	32gg\	.
16c\	32aa\	.
.	32gg\JJJ	.
16e\	32ccc\LLL	.
.	32gg\	.
16c\JJ	32ee\	.
.	32cc\JJJ	.
=43	=43	=43
16G\LL	16gg\LL)	.
16B\	16gg'\JJ	.
16d\	32r	.
.	(32gg\LLL	.
16B\JJ	32aa\	.
.	32gg\JJJ	.
16G\LL	32ee\LLL	.
.	32gg\	.
16c\	32aa\	.
.	32gg\JJJ	.
16e\	32ccc\LLL	.
.	32gg\	.
16c\JJ)	32ee\	.
.	32cc\JJJ	.
=44	=44	=44
8G\ 8B\ 8d\	16gg'\LL)	.
.	16gg'\JJ	.
*clefG2	*	*
(8cc\L	32r	.
.	(32dd\LLL	.
.	32ff#\	.
.	32dd\JJJ	.
8b\	16gg\LL)	.
.	16gg'\JJ	.
8cc\J	32r	.
.	(32dd\LLL	.
.	32ff#\	.
.	32dd\JJJ	.
=45	=45	=45
8b\)	16gg\LL)	.
.	16gg'\JJ	.
16f#/LL	32r	.
.	(32dd\LLL	.
16f#/JJ	32aa\	.
.	32dd\JJJ	.
16g/LL	32bb\LLL	.
.	32dd\	.
16g/	32bb\	.
.	32dd\JJJ	.
16a/	32ccc\LLL	.
.	32dd\	.
16a/JJ	32ccc\	.
.	32dd\JJJ	.
=46	=46	=46
8b\	16ddd\LL	.
.	16bb\)	.
8r	(16gg\	.
.	16bb\JJ)	.
4r	(16dd\LL	.
.	16gg\)	.
.	(16b\	.
.	16dd\JJ)	.
*clefF4	*	*
=47	=47	=47
*^	*	*
8r	8r	(16a\LL	.
.	.	16ee\JJ)	.
8E/ (8A/	8C\	(32dd\LLL	.
.	.	32cc\	.
.	.	32b\	.
.	.	32a\JJJ	.
8G/ 8B/L	4D\	8g/L	.
8A/ 8c/J)	.	8f#/J	.
*v	*v	*	*
=48	=48	=48
.	16eQ/LL	.
.	16f#Q/JJ	.
(16G\LL	8g/)	.
16B\	.	.
16d\	32r	.
.	(32gg\LLL	.
16B\JJ	32aa\	.
.	32gg\JJJ	.
16G\LL	32ee\LLL	.
.	32gg\	.
16c\	32aa\	.
.	32gg\JJJ	.
16e\	32ccc\LLL	.
.	32gg\	.
16c\JJ	32ee\	.
.	32cc\JJJ	.
=49	=49	=49
16G\LL	16gg'\LL)	.
16B\	16gg'\JJ	.
16d\	32r	.
.	(32gg\LLL	.
16B\JJ	32aa\	.
.	32gg\JJJ	.
16G\LL	32ee\LLL	.
.	32gg\	.
16c\	32aa\	.
.	32gg\JJJ	.
16e\	32ccc\LLL	.
.	32gg\	.
16c\JJ)	32ee\	.
.	32cc\JJJ	.
=50	=50	=50
8G\ 8B\ 8d\	16gg'\LL)	.
.	16gg'\JJ	.
*clefG2	*	*
(8cc\L	32r	.
.	(32dd\LLL	.
.	32ff#\	.
.	32dd\JJJ	.
8b\	16gg\LL)	.
.	16gg'\JJ	.
8cc\J	32r	.
.	(32dd\LLL	.
.	32ff#\	.
.	32dd\JJJ	.
=51	=51	=51
8b\)	16gg\LL)	.
.	16gg'\JJ	.
16f#/LL	32r	.
.	(32dd\LLL	.
16f#/JJ	32aa\	.
.	32dd\JJJ	.
16g/LL	32bb\LLL	.
.	32dd\	.
16g/	32bb\	.
.	32dd\JJJ	.
16a/	32ccc\LLL	.
.	32dd\	.
16a/JJ	32ccc\	.
.	32dd\JJJ)	.
=52	=52	=52
8b\	(32ddd\LLL	.
.	32bb\	.
.	32ddd\	.
.	32bb\JJJ	.
8r	32gg\LLL	.
.	32bb\	.
.	32gg\	.
.	32bb\JJJ	.
4r	32dd\LLL	.
.	32gg\	.
.	32dd\	.
.	32gg\JJJ	.
.	32b\LLL	.
.	32dd\	.
.	32b\)	.
.	32dd\JJJ	.
*clefF4	*	*
=53	=53	=53
*^	*	*
8r	8r	(32a\LLL	.
.	.	32ee\	.
.	.	32dd#\	.
.	.	32ee\JJJ	.
8E/ (8A/	8C\	32ddn\LLL	.
.	.	32cc\	.
.	.	32b\	.
.	.	32a\JJJ)	.
8G/ 8B/L	4D\	(8g/L	.
8A/ 8c/J)	.	8f#/J	.
*v	*v	*	*
=54	=54	=54
.	16eQ/LL)	.
.	16f#Q/JJ	.
(16.G\LL	(16.g/LL	f
32D\k)	32d/k)	.
(16.B\	(16.b/	.
32G\JJk)	32g/JJk)	.
8d\	8dd\	.
8r	(32aa\LLL	p
.	32gg\	.
.	32ff#\	.
.	32ee\JJJ	.
=55	=55	=55
8D\ 8G\ 8B\	8dd\)	.
8r	(32ee\LLL	.
.	32dd\	.
.	32cc\	.
.	32b\JJJ	.
8D\ 8F#\ 8c\	8a/)	.
8r	(32dd\LLL	.
.	32cc\	.
.	32b\	.
.	32a\JJJ)	.
=56	=56	=56
(32G\LLL	(32g/LLL	f
32D\	32d/	.
32G\	32g/	.
32D\JJJ	32d/JJJ	.
32B\LLL	32b/LLL	.
32G\	32g/	.
32B\	32b/	.
32G\JJJ	32g/JJJ	.
8d\)	8dd\)	.
8r	(32aa\LLL	p
.	32gg\	.
.	32ff#\	.
.	32ee\JJJ	.
=57	=57	=57
8D\ 8G\ 8B\	16dd'\LL)	.
.	16dd'\JJ	.
8r	(32ee\LLL	.
.	32dd\	.
.	32cc\	.
.	32b\JJJ	.
8D\ 8F#\ 8c\	16a'/LL)	.
.	16a'/JJ	.
8r	(32dd\LLL	.
.	32cc\	.
.	32b\	.
.	32a\JJJ	.
=58	=58	=58
8G\ 8B\L	8g/L)	.
8G'\	8d'/ 8b'/	.
8GG'\J	8B'/ 8g'/J	.
8r	8r	.
=59:|!|:	=59:|!|:	=59:|!|:
*>B	*>B	*>B
*clefG2	*	*
16g/LL	(8.dd\L	p
16b/	.	.
16g/	.	.
16b/JJ	16dd#\Jk	.
16g/LL	16ee\LL	.
16b/	16ff#\	.
16fn/	16gg\	.
16a-/JJ	16b\JJ	.
=60	=60	=60
16e/LL	16ddn\LL	.
16g/	16cc\JJ)	.
16e/	16r	.
16g/JJ	(16b\	.
16e/LL	16cc\LL	.
16g/	16dd\	.
16d/	16ee\	.
16f/JJ	16g#\JJ	.
=61	=61	=61
16c/LL	16b/LL	.
16e/	16a/JJ)	.
16c/	16r	.
16e/JJ	(16g#/	.
16c/LL	16a/LL	.
16e/	16b/	.
16c/	16cc/	.
16e-/JJ	16f#/JJ)	.
=62	=62	=62
16B/LL	(16a/LL	.
16d/	16gn/	.
16c/	16ee/	.
16d/JJ	16f#/JJ)	.
16B/LL	(16a/LL	.
16d/	16g/	.
16c/	16ee/	.
16d/JJ	16f#/JJ)	.
=63	=63	=63
16B/LL	(16a/LL	.
16d/	16g/	.
16c/	16ee-/	.
16e-/JJ	16f#/JJ)	.
16B/LL	(16a/LL	.
16d/	16g/	.
16c/	16ee-/	.
16e-/JJ	16f#/JJ)	.
=64	=64	=64
4B/ 4d/	(16g/LL	.
.	32a/L	.
.	32b/JJJ	.
.	32cc\LLL	.
.	32dd\	.
.	32een\	.
.	32ff#\JJJ	.
4r	32gg\LLL	.
.	32aa\	.
.	32bb\	.
.	32ff#\JJJ	.
.	32gg\LLL	.
.	32dd\	.
.	32ee\	.
.	32b\JJJ	.
*clefF4	*	*
=65	=65	=65
(16D\LL	4dd\)	.
16B\	.	.
16G\	.	.
16B\JJ	.	.
16D\LL	(8.cc\L	.
16A\	.	.
16F#\	.	.
16A\JJ)	32b\LL	.
.	32cc\JJJ	.
=66	=66	=66
(16G\LL	4b\)	.
16B\	.	.
16d\	.	.
16B\JJ	.	.
8G\)	16r	.
.	32aQ/	.
.	(32g/LLL	.
.	32f#/JJJ	.
8r	16g/LL)	.
.	16b'/JJ	.
=67	=67	=67
(16G\LL	(8ee\L	.
16B\	.	.
16d\	8dd\J)	.
16B\JJ	.	.
8G\)	16r	.
.	32ccQ/	.
.	(32b/LLL	.
.	32a/JJJ	.
8r	16b\LL)	.
.	16dd'\JJ	.
=68	=68	=68
(16G\LL	(8gg\L	.
16B\	.	.
16d\	8ffn\J)	.
16B\JJ	.	.
8G\)	16r	.
.	(32eeQ/	.
.	(32dd\LLL)	.
.	32cc#\JJJ	.
8r	16dd\LL)	.
.	16ff'\JJ	.
=69	=69	=69
(8G#\L	(16cccn\LK	.
.	8bb\	.
8B\	.	.
.	8ddd\	.
8d\	.	.
.	8gg#\	.
8f\J	.	.
.	[16bb\Jk	.
=70	=70	=70
8d\L	16bb\LK]	.
.	8dd\	.
8B\	.	.
.	8ff\	.
8G#\	.	.
.	8ee\	.
8e\J)	.	.
.	16dd\Jk)	.
=71	=71	=71
16A\LL	[4cc\	.
16c\	.	.
16e\	.	.
16c\JJ	.	.
16A\LL	16cc\LL]	.
.	32ddQ/	.
16c\	(32cc\L	.
.	32b\JJJ	.
16f\	16cc\LL	.
16c\JJ	16dd\JJ)	.
=72	=72	=72
16G\LL	(4cc\	.
16d\	.	.
16f\	.	.
16d\JJ	.	.
16G\LL	8.b-/L	.
16c\	.	.
16e\	.	.
16c\JJ	32a/LL	.
.	32b-/JJJ)	.
=73	=73	=73
16F\LL	(16a\LK	.
16c\	8cc\	.
16f\	.	.
16c\JJ	8ff\	.
16F\LL	.	.
16A\	8aa\	.
16d\	.	.
16A\JJ	16bb-\Jk)	.
=74	=74	=74
16E\LL	(4aa\	.
16A\	.	.
16c#\	.	.
16A\JJ	.	.
16E\LL	8gg\)	.
16A\	.	.
16c#\	8r	.
16A\JJ	.	.
=75	=75	=75
16D\LL	(8.gg\L	.
16A\	.	.
16cn\	.	.
16A\JJ	16ff#\Jk)	.
16D\LL	8ffn'\	.
16G\	.	.
16B\	8r	.
16G\JJ	.	.
=76	=76	=76
16C\LL	(8.ff\L	.
16G\	.	.
16c\	.	.
16G\JJ	16ee\Jk)	.
16C\LL	8ee-'\	.
16G\	.	.
16c\	8r	.
16G\JJ	.	.
=77	=77	=77
16F\LL	(16ee-\LL	.
16A-\	16dd\)	.
16c\	16dd'\	.
16A-\JJ	16dd'\JJ	.
16F\LL	8dd\L	.
16A-\	.	.
16c\	8dd\J	.
16A-\JJ	.	.
=78	=78	=78
16F#\LL	(8dd\L	.
16An\	.	.
16c\	32ff\KK	.
.	8..ee-\J)	.
16A\JJ	.	.
16F#\LL	.	.
16A\	.	.
16c\	(32dd\LLK	.
.	16.cc\JJ)	.
16A\JJ	.	.
=79	=79	=79
8G\L	(16b\LL	.
.	16gg\JJ)	.
8G\	16r	.
.	16gg\	.
8G\ 8A\	16r	.
.	16ff#\	.
8G\ 8B\J	16r	.
.	16ffn\	.
=80	=80	=80
8G\ 8c\L	(16ff\LL	.
.	16ee\JJ)	.
8G\ 8g\	16r	.
.	16ee-\	.
8G\ 8f\	16r	.
.	16dd\	.
8G\ 8e-\J	16r	.
.	16cc\	.
=81	=81	=81
8G\L	(16cc\LL	.
.	16b\JJ)	.
8G\ 8B\	32r	.
.	(32gg\LLL	.
.	32aa\	.
.	32gg\JJJ)	.
8G\ 8A\	32r	.
.	(32ff#\LLL	.
.	32gg\	.
.	32ff#\JJJ)	.
8G\ 8B\J	32r	.
.	(32ffn\LLL	.
.	32gg\	.
.	32ff\JJJ)	.
=82	=82	=82
8G\ 8c\L	32r	.
.	(32een\LLL	.
.	32ff\	.
.	32ee\JJJ)	.
8G\ 8g\	32r	.
.	(32ee-\LLL	.
.	32ff\	.
.	32ee-\JJJ)	.
8G\ 8f\	32r	.
.	(32dd\LLL	.
.	32ee-\	.
.	32dd\JJJ)	.
8F#\ 8e-\J	32r	.
.	(32cc\LLL	.
.	32dd\	.
.	32cc\JJJ)	.
=83	=83	=83
8G\	16b'\LL	.
.	32ccQ/	.
.	(32b\L	.
.	32a\JJJ	.
8r	16b\LL)	.
.	16cc'\JJ	.
4r	16dd'\LL	.
.	32eenQ/	.
.	(32dd\L	.
.	32cc#\JJJ	.
.	16dd\LL)	.
.	16ee'\JJ	.
=84	=84	=84
*^	*	*
8d/L	8G\	8ff\	.
16r	8r	32r	.
.	.	(32gg\LLL	.
(16c#/Jk	.	32ee\	.
.	.	32gg\JJJ	.
8d/L)	8G\	8ff\)	.
(16c#/Jk	8r	32r	.
.	.	(32gg\LLL	.
16r	.	32ee\	.
.	.	32gg\JJJ	.
=85	=85	=85	=85
8d/L)	8G\	8ff\)	.
(16c#/Jk	8r	32r	.
.	.	(32gg\LLL	.
16r	.	32ee\	.
.	.	32gg\JJJ	.
16d/LL	8G\L	32ff\LLL	<
.	.	32gg\	.
16c#/	.	32ee\	.
.	.	32gg\JJJ	.
16d/	8G\J	32ff\LLL	.
.	.	32gg\	.
16c#/JJ	.	32ee\	.
.	.	32gg\JJJ	.
*v	*v	*	*
=86	=86	=86
4G\ 4d\)	16ff\LL)	.
.	16ee'\	.
.	16dd'\	.
.	16ccn'\JJ	.
*clefG2	*	*
16r	16b'\LL	.
16A'/LL	16cc'\	.
16B'/	16dd'\	.
16c'/JJ	16ee'\JJ	.
=87	=87	=87
16d'/LL	16ff'\LL	.
16c'/	16ee'\	.
16B'/	16dd'\	.
16c'/JJ	16ee'\JJ	.
16d'/LL	16ff'\LL	.
16c#'/	16ee'\	.
16d'/	16ff'\	.
16d#'/JJ	16ff#'\JJ	.
=88	=88	=88
(16e/LL	8gg'\L	.
16cn/	.	.
16e/	(8.gg\J	.
16c/JJ	.	.
16e/LL	.	.
16c/	32ffn\LLL	.
.	32ee\JJJ)	.
16f/	(32ee\LLL	.
.	32dd\	.
16c/JJ)	32cc\	.
.	32b\JJJ)	.
=89	=89	=89
16e/LL	(8.cc\L	.
16c/	.	.
16e/	.	.
.	16bQ/LL	.
.	16ccQ/JJ	.
16c/JJ	32dd\LL	.
.	32ee\JJJ)	.
16e/LL	8g/	.
16c/	.	.
16e/	8r	.
16c/JJ	.	.
=90	=90	=90
16e/LL	16gg'\LL	.
16c/	16gg'\J	.
16e/	(8.gg\J	.
16c/JJ	.	.
16e/LL	.	.
16c/	32ff\LLL	.
.	32ee\JJJ)	.
16f/	(32ee\LLL	.
.	32dd\	.
16c/JJ	32cc\	.
.	32b\JJJ)	.
=91	=91	=91
16e/LL	(8.cc\L	.
16c/	.	.
16e/	.	.
.	16bQ/LL	.
.	16ccQ/JJ	.
16c/JJ	32dd\LL	.
.	32ee\JJJ)	.
16e/LL	8g/	.
16c/	.	.
16e/	8r	.
16c/JJ	.	.
=92	=92	=92
16f/LL	16a'\LL	.
16c/	16cc'\	.
16f/	16ff'\	.
16c/JJ	16aa'\JJ	.
16f/LL	16ccc'\LL	.
16c/	16fff'\JJ	.
16f/	8r	.
16c/JJ	.	.
=93	=93	=93
16e/LL	16g'\LL	.
16c/	16cc'\	.
16e/	16ee'\	.
16c/JJ	16gg'\JJ	.
16e/LL	16ccc'\LL	.
16c/	16eee'\JJ	.
16e/	8r	.
16c/JJ	.	.
*clefF4	*	*
=94	=94	=94
*^	*	*
.	.	(32gQ/	.
8e/L	16c\LL	4.gg\)	.
.	16G\	.	.
8e/J	16c\	.	.
.	16G\JJ	.	.
8d/L	16B\LL	.	.
.	16G\	.	.
8d/J	16B\	(16ff\LL	.
.	16G\JJ	32ee\L	.
.	.	32ff\JJJ)	.
*v	*v	*	*
=95	=95	=95
16c\LL	(8dd#\L	.
16C\	.	.
16E\	8ee\J)	.
16G\JJ	.	.
16c\LL	4r	.
16e\	.	.
16g\	.	.
16e\JJ	.	.
=96	=96	=96
*	*^	*
2r	32a/LLL	16f\LL	.
.	(32cc/	.	.
.	32dd/	16c\	.
.	32ee/JJJ	.	.
.	32ff/LLL	16f\	.
.	32gg/	.	.
.	32aa/	16c\JJ	.
.	32bb/JJJ	.	.
.	8ccc/)	16f\LL	.
.	.	16c\	.
.	8r	16f\	.
.	.	16c\JJ	.
=97	=97	=97	=97
2r	(32g/LLL	16e\LL	.
.	32cc/	.	.
.	32dd/	16c\	.
.	32ee/JJJ	.	.
.	32ff/LLL	16e\	.
.	32gg/	.	.
.	32aa/	16c\JJ	.
.	32bb/JJJ	.	.
.	8ccc/)	16e\LL	.
.	.	16c\	.
.	8r	16e\	.
.	.	16c\JJ	.
*	*v	*v	*
=98	=98	=98
*^	*	*
8e/L	16c\LL	(16aa\LL	.
.	16G\	16gg\)	.
8e/J	16c\	16ff'\	.
.	16G\JJ	16ee'\JJ	.
8f/L	16d\LL	(16ee\LL	.
.	16G\	16dd\)	.
8f/J	16d\	16cc'\	.
.	16G\JJ	16b'\JJ	.
*v	*v	*	*
=99	=99	=99
4c\ 4e\	(32cc\LLL	.
.	32g\	.
.	32a\	.
.	32b\JJJ	.
.	32cc\LLL	.
.	32dd\	.
.	32ee\	.
.	32ff\JJJ	.
4r	32gg\LLL	.
.	32aa\	.
.	32bb\	.
.	32ccc\JJJ	.
.	16gg'\LL)	.
.	16gg'\JJ	.
=100	=100	=100
8G'\ 8e'\L	32r	.
.	(32gg\LLL	.
.	32aa\	.
.	32gg\JJJ)	.
8G'\ 8d'\	32r	.
.	(32ff\LLL	.
.	32gg\	.
.	32ff\JJJ)	.
8G'\ 8c'\	32r	.
.	(32ee\LLL	.
.	32ff\	.
.	32ee\JJJ)	.
8G'\ 8B'\J	32r	.
.	(32dd\LLL	.
.	32ee\	.
.	32dd\JJJ)	.
=101	=101	=101
4c\	(32cc\LLL	.
.	32g\	.
.	32a\	.
.	32b\JJJ	.
.	32cc\LLL	.
.	32dd\	.
.	32ee\	.
.	32ff\JJJ	.
4r	32gg\LLL	.
.	32aa\	.
.	32bb\	.
.	32ccc\JJJ	.
.	16gg'\LL)	.
.	16gg'\JJ	.
=102	=102	=102
8G'\ 8e'\L	32r	.
.	(32gg\LLL	.
.	32aa\	.
.	32gg\JJJ)	.
8G'\ 8d'\	32r	.
.	(32ff\LLL	.
.	32gg\	.
.	32ff\JJJ)	.
8G'\ 8c'\	32r	.
.	(32ee\LLL	.
.	32ff\	.
.	32ee\JJJ)	.
8G'\ 8B'\J	32r	.
.	(32dd\LLL	.
.	32ee\	.
.	32dd\JJJ	.
=103	=103	=103
16C\LL	16cc\LK)	.
(16c\	(8cc\	.
16B\	.	.
16B-\JJ	32dd\LL	.
.	32ee\JJJ	.
16A\LL)	16ff\LK)	.
(16A\	(8ff\	.
16G\	.	.
16F\JJ	32gg\LL	.
.	32aa\JJJ	.
=104	=104	=104
8E'\L)	16gg\LL	.
.	16ee\)	.
8C'\J	16ccc'\	.
.	16ccc'\JJ	.
8r	(32ddd\LLL	.
.	32ccc\	.
.	32bb\	.
.	32aa\JJJ	.
8C\ 8c\	(32aa\LLL)	.
.	32gg\	.
.	32ff\	.
.	32ee\JJJ)	.
=105	=105	=105
*^	*	*
(8.e/L	4G\	(8.gg\L	.
16c/Jk	.	16ee\Jk	.
8B/)	16r	8dd\)	.
.	(16GG\LL	.	.
8r	16BB\	8r	.
.	16D\JJ	.	.
*v	*v	*	*
=106	=106	=106
16G\LL	(32cc#\LLK	.
.	16.dd\J	.
16B\)	.	.
16d\JJ	32ccn\LL	.
.	32b\	.
16r	32a\	.
.	32g\JJJ)	.
(16G\LL	(16cc#\LL	.
16B\	16dd\JJ	.
16d\JJ)	32ccn\LLL	.
.	32b\	.
16r	32a\	.
.	32g\JJJ)	.
=107	=107	=107
(16G\LL	(16dd#\LL	.
16c\	16ee\)	.
16e\	16ee'\	.
16c\JJ	16ee'\JJ	.
16G\LL	8ee\	.
16c\	.	.
16e\	8r	.
16c\JJ	.	.
=108	=108	=108
.	(32aQ/	.
16F#\LL	(8.aa\L)	.
16A\	.	.
16c\JJ)	.	.
16r	48gg\LL	.
.	48ff#\	.
.	48ee\JJJ	.
(16F#\LL	16dd\LL)	.
16A\	16ddd'\	.
16c\JJ)	16ddd'\	.
16r	16ddd'\JJ	.
=109	=109	=109
(16Fn\LL	([8ddd\L	.
16G\	.	.
16B\	32ddd\LL]	.
.	32bb\	.
16d\JJ	32ddd\	.
.	32bb\JJJ	.
8fn\L	16gg'\LL)	.
.	16b\ (16dd\	.
16e\L	16cc\ 16ee\	.
16d\JJ)	16dd\ 16ffn\JJ)	.
*clefG2	*	*
=110	=110	=110
(16c/LL	(16ff#\LL	.
16e/	16gg\JJ	.
16g/JJ)	32ffn\LLL	.
.	32ee\	.
16r	32dd\	.
.	32cc\JJJ)	.
(16c/LL	(32ff#\LLL	.
.	32gg\	.
16e/	32aa\	.
.	32gg\JJJ	.
16g/JJ)	32ffn\LLL	.
.	32ee\	.
16r	32dd\	.
.	32cc\JJJ)	.
=111	=111	=111
(16c/LL	(16gg#\LL	.
16f/	16aa\)	.
16a/	16aa'\	.
16f/JJ	16aa'\JJ	.
16c/LL	8aa\	.
16f/	.	.
16a/	8r	.
16f/JJ)	.	.
=112	=112	=112
2B/ 2d/ 2f/ 2g/	(32ddd\LLL	.
.	32eee\	.
.	32fff\	.
.	32eee\JJJ	.
.	32ddd\LLL	.
.	32ccc\	.
.	32bb\	.
.	32aa\JJJ	.
.	32gg\LLL	.
.	32bb\	.
.	32ddd\	.
.	32ccc\JJJ	.
.	32bb\LLL	.
.	32aa\	.
.	32gg\	.
.	32ff\JJJ	.
=113	=113	=113
24c/LL	8ee'\L)	.
24e/	.	.
24cc/JJ	.	.
24d/LL	(16ff\L	.
24f/	.	.
.	32ee\L	.
24cc/JJ	.	.
.	32ff\JJJ	.
24e/LL	8gg\)	.
24g/	.	.
24cc/JJ	.	.
24c/LL	8r	.
24e/	.	.
24cc/JJ	.	.
=114	=114	=114
.	16aaQ/LL	.
.	16bbQ/JJ	.
24f/LL	8ccc\L	.
24a/	.	.
24cc/JJ	.	.
24f/LL	16.ccc\L	.
24a/	.	.
24cc/JJ	.	.
.	32ccc\JJk	.
24f/LL	8ccc\	.
24a/	.	.
24cc/JJ	.	.
24f/LL	(32bb\LLL	.
.	32aa\	.
24a/	.	.
.	32gg\	.
24cc/JJ	.	.
.	32ff\JJJ	.
=115	=115	=115
24c/LL	8ee\L)	.
24e/	.	.
24cc/JJ	.	.
24d/LL	(16ff\L	.
24f/	.	.
.	32ee\L	.
24cc/JJ	.	.
.	32ff\JJJ	.
24e/LL	8gg\)	.
24g/	.	.
24cc/JJ	.	.
24c/LL	8r	.
24e/	.	.
24cc/JJ	.	.
=116	=116	=116
.	16aaQ/LL	.
.	16bbQ/JJ	.
24f/LL	8ccc\L	.
24a/	.	.
24cc/JJ	.	.
24f/LL	16.ccc\L	.
24a/	.	.
24cc/JJ	.	.
.	32ccc\JJk	.
24f/LL	(8ccc\	.
24a/	.	.
24cc/JJ	.	.
24f/LL	32bb\LLL	.
.	32aa\	.
24a/	.	.
.	32gg\	.
24cc/JJ	.	.
.	32ff\JJJ	.
*clefF4	*	*
=117	=117	=117
8c\	16ee'\LL)	.
.	(32ccc\L	.
.	32ddd\JJJ	.
8r	32eee\LLL	.
.	32ddd\	.
.	32ccc\	.
.	32bb\JJJ	.
8F\	32aa\LLL	.
.	32gg\	.
.	32ff\	.
.	32ee\JJJ	.
8r	32dd\LLL	.
.	32cc\	.
.	32b\	.
.	32a\JJJ	.
=118	=118	=118
8G\	8g/)	.
(4G#\ 4B\ (4d\	(4f/	.
8A\) 8c\)	8e/)	.
=119	=119	=119
8F\ 8A\	16r	.
.	16d'/LL	.
8r	16f'/	.
.	16a/JJ	.
4r	(16cc#\LL	.
.	16dd\	.
.	16ff\	.
.	16aa\JJ)	.
=120	=120	=120
*	*^	*
8r	4.r	(16aa\LL	.
.	.	16ccn\JJ)	.
[8Gn\ (8e\	.	(4cc\	.
4G\] 4f\)	.	.	.
.	16ee/LL	8b\	.
.	16dd/JJ)	.	.
=121	=121	=121	=121
8c\ 8e\L	8cc/	8cc\	.
8C\J	4.r	8r	.
4r	.	(16gg\LL	.
.	.	16ee\	.
.	.	16ccc\)	.
.	.	16bb'\JJ	.
*	*v	*v	*
=122	=122	=122
2r	16aa'\LL	.
.	16gg'\	.
.	16ff'\	.
.	16ee'\JJ	.
.	8dd'\L	.
.	8ee'\J	.
*clefG2	*	*
=123	=123	=123
*^	*	*
8r	8r	(16gg\LL	.
.	.	16ff#\	.
4g/	(8B\L	16ffn\JJ)	.
.	.	16r	.
.	8c\J)	(16ee\LL	.
.	.	16ff\	.
8r	8r	16gg\)	.
.	.	16gg#'\JJ	.
*clefF4	*clefF4	*	*
=124	=124	=124	=124
4.r	4F\ 4c\	(16.aa\LL	.
.	.	32bb\k	.
.	.	16ccc'\)	.
.	.	16bb'\JJ	.
.	8r	16aa'\LL	.
.	.	16ggn'\	.
8A/	8F#\	16ff'\	.
.	.	16ee'\JJ	.
=125	=125	=125	=125
8c/L	4G\	(16.gg\LL	.
.	.	32ee\Jk	.
8B/J	.	8dd'\J)	.
*clefG2	*clefG2	*	*
(16.g/LL	4r	(16.gg\LL	.
64a/LL	.	64aa\LL	.
64b/JJJJ	.	64bb\JJJJ	.
16cc\LL)	.	16ccc\LL)	.
16b'\JJ	.	16bb'\JJ	.
*v	*v	*	*
=126	=126	=126
16a'/LL	16aa'\LL	.
16g'/	16gg\	.
16f'/	16ff'\	.
16e'/JJ	16ee'\JJ	.
8d'/L	8dd'\L	.
8e'/J	8ee'\J	.
=127	=127	=127
8f'/L	8ff'\L	.
8f#'/	8ff#'\	.
8g'/	8gg'\	.
8g#'/J	8gg#'\J	.
=128	=128	=128
*^	*^	*
4r	8a/	4r	(16.aa\LL	.
.	.	.	32a\k)	.
*clefF4	*clefF4	*	*	*
.	8F\ 8d\	.	(16.ffn\	.
.	.	.	32dd\JJk)	.
(8e/L	4G\	8cc/L	(8cc\L	.
8f/J)	.	16ee/L	8b\J	.
.	.	16dd/JJ	.	.
*v	*v	*	*	*
*clefG2	*	*	*
*	*v	*v	*
=129	=129	=129
16c/LL	8cc\)	.
(16e/	.	.
16g/	32r	.
.	(32cc\LLL	.
16e/JJ	32dd\	.
.	32ee\JJJ	.
16c/LL	32ff\LLL	.
.	32ee\	.
16f/	32ff\	.
.	32gg\JJJ	.
16a/	32aa\LLL	.
.	32gg\	.
16f/JJ	32aa\	.
.	32bb\JJJ	.
=130	=130	=130
16c/LL	16ccc'\LL)	.
16e/	16ccc'\JJ	.
16g/	32r	.
.	(32cc\LLL	.
16e/JJ	32dd\	.
.	32ee\JJJ	.
16c/LL	32ff\LLL	.
.	32ee\	.
16f/	32ff\	.
.	32gg\JJJ	.
16a/	32aa\LLL	.
.	32gg\	.
16f/JJ)	32aa\	.
.	32bb\JJJ	.
=131	=131	=131
*^	*	*
8c/ 8e/ 8g/	8r	16ccc'\LL)	.
.	.	16ccc'\JJ	.
4g/	(8f\L	32r	.
.	.	(32gg\LLL	.
.	.	32bb\	.
.	.	32gg\JJJ	.
.	8e\	16ccc\LL)	.
.	.	16ccc'\JJ	.
8g/	(8f\J	32r	.
.	.	(32gg\LLL	.
.	.	32bb\	.
.	.	32gg\JJJ	.
=132	=132	=132	=132
8g/)	8e\)	16ccc\LL)	.
.	.	16ccc'\JJ	.
16f/ 16g/LL	4.r	32r	.
.	.	(32gg\LLL	.
16f/ 16g/JJ	.	32bb\	.
.	.	32gg\JJJ	.
16e/ 16g/LL	.	32ccc\LLL	.
.	.	32gg\	.
16e/ 16g/	.	32ccc\	.
.	.	32gg\JJJ	.
16B/ 16g/	.	32ddd\LLL	.
.	.	32gg\	.
16B/ 16g/JJ	.	32ddd\	.
.	.	32gg\JJJ	.
*v	*v	*	*
=133	=133	=133
8c/ 8g/	16eee\LL	.
.	16ccc\)	.
8r	(16gg\	.
.	16ccc\JJ)	.
4r	(16ee\LL	.
.	16gg\)	.
.	(16cc\	.
.	16ee\JJ)	.
=134	=134	=134
*^	*	*
8r	8r	(16a\LL	.
.	.	16aa\JJ)	.
*clefF4	*clefF4	*	*
8A/ 8d/	8F\	(32gg\LLL	.
.	.	32ff\	.
.	.	32ee\	.
.	.	32dd\JJJ	.
8c/ (8e/L	4G\	8cc\L	.
8d/ 8f/J)	.	8b\J	.
*v	*v	*	*
*clefG2	*	*
=135	=135	=135
.	16aQ/LL	.
.	16bQ/JJ	.
16c/LL	8cc\)	.
(16e/	.	.
16g/	32r	.
.	(32cc\LLL	.
16e/JJ	32dd\	.
.	32ee\JJJ	.
16c/LL	32ff\LLL	.
.	32ee\	.
16f/	32ff\	.
.	32gg\JJJ	.
16a/	32aa\LLL	.
.	32gg\	.
16f/JJ	32aa\	.
.	32bb\JJJ	.
=136	=136	=136
16c/LL	16ccc'\LL)	.
16e/	16ccc'\JJ	.
16g/	32r	.
.	(32cc\LLL	.
16e/JJ	32dd\	.
.	32ee\JJJ	.
16c/LL	32ff\LLL	.
.	32ee\	.
16f/	32ff\	.
.	32gg\JJJ	.
16a/	32aa\LLL	.
.	32gg\	.
16f/JJ)	32aa\	.
.	32bb\JJJ	.
=137	=137	=137
*^	*	*
8c/ 8e/ 8g/	8r	16ccc'\LL)	.
.	.	16ccc'\JJ	.
4g/	(8f\L	32r	.
.	.	(32gg\LLL	.
.	.	32bb\	.
.	.	32gg\JJJ	.
.	8e\	16ccc\LL)	.
.	.	16ccc'\JJ	.
8g/	(8f\J	32r	.
.	.	(32gg\LLL	.
.	.	32bb\	.
.	.	32gg\JJJ	.
=138	=138	=138	=138
8g/)	8e\)	16ccc\LL)	.
.	.	16ccc'\JJ	.
16f/ 16g/LL	4.r	32r	.
.	.	(32gg\LLL	.
16f/ 16g/JJ	.	32bb\	.
.	.	32gg\JJJ	.
16e/ 16g/LL	.	32ccc\LLL	.
.	.	32gg\	.
16e/ 16g/	.	32ccc\	.
.	.	32gg\JJJ	.
16B/ 16g/	.	32ddd\LLL	.
.	.	32gg\	.
16B/ 16g/JJ	.	32ddd\	.
.	.	32gg\JJJ)	.
*v	*v	*	*
=139	=139	=139
8c/ 8g/	(32eee\LLL	.
.	32ccc\	.
.	32eee\	.
.	32ccc\JJJ	.
8r	32gg\LLL	.
.	32ccc\	.
.	32gg\	.
.	32ccc\JJJ	.
4r	32ee\LLL	.
.	32gg\	.
.	32ee\	.
.	32gg\JJJ	.
.	32cc\LLL	.
.	32ee\	.
.	32cc\	.
.	32ee\JJJ)	.
=140	=140	=140
*^	*	*
8r	8r	(16a\LL	.
.	.	16aa\JJ	.
*clefF4	*clefF4	*	*
8A/ 8d/	8F\	32gg\LLL	.
.	.	32ff\	.
.	.	32ee\	.
.	.	32dd\JJJ)	.
8c/ (8e/L	4G\	8cc\L	.
8d/ 8f/J)	.	8b\J	.
*v	*v	*	*
*clefG2	*	*
=141	=141	=141
.	16aQ/LL	.
.	16bQ/JJ	.
(16.c/LL	(16.cc\LL	f
32G/k)	32g\k)	.
(16.e/	(16.ee\	.
32c/JJk)	32cc\JJk)	.
8g'/	8gg'\	.
8r	(32ddd\LLL	p
.	32ccc\	.
.	32bb\	.
.	32aa\JJJ	.
=142	=142	=142
8E/ 8c/ 8e/	8gg\)	.
8r	(32aa\LLL	.
.	32gg\	.
.	32ff\	.
.	32ee\JJJ	.
8G/ 8f/	8dd\)	.
8r	(32gg\LLL	.
.	32ff\	.
.	32ee\	.
.	32dd\JJJ)	.
=143	=143	=143
(32c/LLL	(32cc\LLL	f
32G/	32g\	.
32c/	32cc\	.
32G/JJJ	32g\JJJ	.
32e/LLL	32ee\LLL	.
32c/	32cc\	.
32e/	32ee\	.
32c/JJJ	32cc\JJJ	.
8g/)	8gg\)	.
8r	(32ddd\LLL	p
.	32ccc\	.
.	32bb\	.
.	32aa\JJJ	.
=144	=144	=144
8G/ 8c/ 8e/	16gg'\LL)	.
.	16gg'\JJ	.
8r	(32aa\LLL	.
.	32gg\	.
.	32ff\	.
.	32ee\JJJ	.
8G/ 8B/ 8f/	16dd'\LL)	.
.	16dd'\JJ	.
8r	(32gg\LLL	.
.	32ff\	.
.	32ee\	.
.	32dd\JJJ	.
=145	=145	=145
(16e/LL	8cc\L)	.
16c/	.	.
16e/	16r	.
16c/JJ	(16gg#\Jk	.
16f/LL	16aa\LL	.
16c/	16bb\	.
16g/	16ccc\	<
16c/JJ	16ee\JJ	.
=146	=146	=146
16a/LL	16ggn\LL	.
16c/	16ff\JJ)	.
16b-/	16r	.
16c/JJ	(16ee\	.
16a/LL	16ff\LL	.
16c/	16gg\	.
16g/	16aa\	.
16c/JJ	16cc#\JJ	.
=147	=147	=147
16f/LL	16ee\LL	.
16c/	16dd\JJ)	.
16e/	16r	.
16c/JJ	(16cc#\	p
16f/LL	16dd\LL	.
16c/	16ee\	.
16d/	16ff\	.
16c/JJ)	16b\JJ	.
=148	=148	=148
(16e/LL	16dd\LL	.
16c/	16ccn\	.
16f/	16aa\	.
16c/JJ	16b\JJ	.
16e/LL	16dd\LL	.
16c/	16cc\	.
16f/	16aa\	.
16c/JJ	16b\JJ)	.
=149	=149	=149
16e/LL	16r	.
16c/	(32dd\LLL	.
.	32cc\JJJ)	.
16f/	16r	.
16c/JJ	(32aa-\LLL	.
.	32b\JJJ)	.
16e/LL	16r	.
16c/	(32dd\LLL	.
.	32cc\JJJ)	.
16f/	16r	.
16c/JJ)	(32aa-\LLL	.
.	32b\JJJ)	.
*clefF4	*	*
=150	=150	=150
[4C\ [4c\	(4f/ 4g/ 4b/ 4dd/	.
8C\] 8E\ 8G\ 8c\]	8e/) 8g/ 8cc/	.
8r	8r	.
==:|!	==:|!	==:|!
*-	*-	*-
!!!SMS: Alte Mozart-Ausgabe, Band 20, Breitkopf &amp; H&auml;rtel 1877-1883.
!!!ONB: Stich und Druck von Breitkopf &amp; H&auml;rtel in Leipzig
!!!ONB: Ausgegeben 1878
!!!ENC: Craig Stuart Sapp
!!!END: 2009/10/08/
!!!title: @{OTL}, K 330 (300h), @{OMV}
!!!hum2abc: --no-tempo -s 0.65 --spacing 2.0 -p "%gracespace  0 6.0 12.0"
